arch.svg

<svg fill="currentColor" viewBox="0 0 24 24"><path d="M12 2c-.89 2.18-1.43 3.61-2.42 5.73.61.64 1.35 1.39 2.56 2.24-1.3-.54-2.19-1.07-2.85-1.63C8 11 6.03 14.75 2 22c3.17-1.83 5.63-2.96 7.92-3.39-.1-.42-.16-.88-.15-1.36v-.1c.05-2.03 1.11-3.59 2.36-3.48 1.25.1 2.22 1.83 2.17 3.87-.01.38-.05.75-.12 1.09 2.26.44 4.69 1.56 7.82 3.37-.62-1.14-1.17-2.16-1.69-3.13-.81-.64-1.7-1.48-3.46-2.37 1.21.3 2.08.66 2.76 1.07C14.26 7.62 13.83 6.3 12 2"/></svg>

<svg  viewBox="0 0 24 24" fill="currentColor"><path  d="M12,2C11.11,4.18 10.57,5.61 9.58,7.73C10.19,8.37 10.93,9.12 12.14,9.97C10.84,9.43 9.95,8.9 9.29,8.34C8,11 6.03,14.75 2,22C5.17,20.17 7.63,19.04 9.92,18.61C9.82,18.19 9.76,17.73 9.77,17.25V17.15C9.82,15.12 10.88,13.56 12.13,13.67C13.38,13.77 14.35,15.5 14.3,17.54C14.29,17.92 14.25,18.29 14.18,18.63C16.44,19.07 18.87,20.19 22,22C21.38,20.86 20.83,19.84 20.31,18.87C19.5,18.23 18.61,17.39 16.85,16.5C18.06,16.8 18.93,17.16 19.61,17.57C14.26,7.62 13.83,6.3 12,2Z"/></svg>
